X: 310
T:Hills of Tara, The
Z:Philippe Varlet
S:Four Provinces
M:4/4
R:Barn Dance
L:1/8
K:G
Bc|d2 G2 G2 AB|c2 E2 E2 AG|FGAB cBcd|e2 d2 d2 Bc|
d2 G2 G2 AB|c2 E2 E2 AG|FGAB cAFG|A2 G2  G2 :||
Bd|g2 g2 f2 f2|efec A2 AG|FGAB cBcd|e2 d2 d2 Bd|
g2 g2 f2 f2|efec A2 AG|FGAB cAFG|A2 G2  G2 :||
<end>
<start>
